fs/rhombus_16_regular.svg

<svg viewBox="0 0 16 16" fill="none" xmlns="http://www.w3.org/2000/svg" height="1em" width="1em">
  <path d="M3.89163 4.06874C4.1654 3.42097 4.80033 3 5.50358 3H13.2515C14.5041 3 15.3511 4.2775 14.8635 5.43126L12.1157 11.9329C11.8419 12.5807 11.207 13.0017 10.5037 13.0017H2.75576C1.50319 13.0017 0.656191 11.7242 1.14381 10.5704L3.89163 4.06874ZM5.50358 4C5.20219 4 4.93007 4.18041 4.81274 4.45803L2.06492 10.9597C1.85594 11.4542 2.21894 12.0017 2.75576 12.0017H10.5037C10.8051 12.0017 11.0772 11.8213 11.1946 11.5436L13.9424 5.04197C14.1513 4.5475 13.7883 4 13.2515 4H5.50358Z" fill="#212121"/>
</svg>

<svg viewBox="0 0 16 16" fill="none" xmlns="http://www.w3.org/2000/svg" height="1em" width="1em">
  <path d="M3.892 4.069A1.75 1.75 0 0 1 5.504 3h7.748a1.75 1.75 0 0 1 1.611 2.431l-2.747 6.502a1.75 1.75 0 0 1-1.612 1.069H2.756a1.75 1.75 0 0 1-1.612-2.432l2.748-6.5ZM5.504 4a.75.75 0 0 0-.691.458L2.065 10.96a.75.75 0 0 0 .69 1.042h7.749a.75.75 0 0 0 .69-.458l2.748-6.502A.75.75 0 0 0 13.252 4H5.503Z" fill="#212121"/>
</svg>
